dist/svg/u1F199.svg

<?xml version="1.0" encoding="UTF-8"?><svg id="a" xmlns="http://www.w3.org/2000/svg" viewBox="0 0 40 40"><g><rect x="3.5" y="3.5" width="33" height="33" rx="8" ry="8" fill="#007ff2"/><g><path d="M12.815,24.114c1.33,0,2.27-.952,2.27-2.634v-6.135h2.227v6.135c0,3.082-2.101,4.524-4.496,4.524-2.382,0-4.497-1.442-4.497-4.524v-6.135h2.241v6.135c0,1.682,.925,2.634,2.256,2.634Z" fill="#fff"/><path d="M27.321,18.89c0,2.129-1.639,3.558-4.021,3.558h-1.807v3.348h-2.241V15.346h4.356c2.325,0,3.712,1.4,3.712,3.544Zm-4.664,1.681c1.345,0,2.353-.462,2.353-1.681,0-1.205-.98-1.681-2.283-1.681h-1.232v3.361h1.163Z" fill="#fff"/><path d="M30.216,22.994c.826,0,1.513,.658,1.513,1.513s-.687,1.513-1.513,1.513c-.841,0-1.527-.658-1.527-1.513s.687-1.513,1.527-1.513Zm1.261-7.929l-.225,7.018h-2.087l-.224-7.018h2.535Z" fill="#fff"/></g></g><rect width="40" height="40" fill="none"/></svg>

<svg id="Layer_1" data-name="Layer 1" xmlns="http://www.w3.org/2000/svg" viewBox="0 0 40 40"><defs><style>.cls-1{fill:#007ff2;}.cls-2{fill:#fff;}.cls-3{fill:none;}</style></defs><rect class="cls-1" x="3.5" y="3.5" width="33" height="33" rx="8"/><path class="cls-2" d="M12.815,24.114c1.331,0,2.27-.952,2.27-2.634V15.346h2.227V21.48a4.222,4.222,0,0,1-4.5,4.525,4.229,4.229,0,0,1-4.5-4.525V15.346H10.56V21.48C10.56,23.162,11.484,24.114,12.815,24.114Z"/><path class="cls-2" d="M27.321,18.89c0,2.129-1.638,3.557-4.02,3.557H21.494V25.8H19.253V15.346h4.356A3.371,3.371,0,0,1,27.321,18.89Zm-4.664,1.68c1.345,0,2.353-.462,2.353-1.68s-.981-1.681-2.283-1.681H21.494V20.57Z"/><path class="cls-2" d="M30.216,22.994a1.513,1.513,0,1,1-1.528,1.513A1.507,1.507,0,0,1,30.216,22.994Zm1.261-7.929-.225,7.018H29.165l-.224-7.018Z"/><rect class="cls-3" width="40" height="40"/></svg>
